X:1
T:How Sweet the Name of Jesus Sounds
T:Text: John Newton, 1779 Tune: Alexander R. Reinagle, 1836
T:CM ST. PETER www.hymnary.org/text/how_sweet_the_name_of_jesus_sounds_in_a
T:How Sweet the Name of Jesus Sounds
T:This hymn is in the public domain.  You may freely use this score for personal and congregational worship.  If you reproduce the score, please credit Hymnary.org as the source. 
T:This hymn is in the public domain.  You may freely use this score for personal and congregational worship.  If you reproduce the score, please credit Hymnary.org as the source. 
Z:This hymn is in the public domain.  You may freely use this score for personal and congregational worship.  If you reproduce the score, please credit Hymnary.org as the source.
%%score ( 1 2 ) ( 3 4 )
L:1/8
M:4/4
K:D
V:1 treble nm="SOPRANO ALTO" snm="S. A."
V:2 treble 
V:3 bass nm="TENOR BASS" snm="T. B."
V:4 bass 
V:1
"^1""^2""^3""^4""^5" A2 | d2 c2 B2 A2 | A2 G2 F2 F2 | E2 D2 G2 F2 | E6 |1 F2 | G2 F2 B2 A2 | %7
w: How|sweet the name of|Je- sus sounds in|a be- liev- er's|ear!|It|soothes our sor- rows,|
w: It|makes the wound- ed|spir- it whole and|calms the trou- bled|breast;|'tis|man- na to the|
w: O|Je- sus, shep- herd,|guard- ian, friend, my|Proph- et, Priest, and|King,|my|Lord, my Life, my|
w: How|weak the ef- fort|of my heart, how|cold my warm- est|thought;|but|when I see you|
w: Till|then I would your|love pro- claim with|ev- ery fleet- ing|breath;|and|may the mu- sic|
 A2 G2 F2 D2 | F2 E2 D2 C2 | D6 x2 |] %10
w: heals our wounds, and|drives a- way our|fear.|
w: hun- gry soul, and|to the wea- ry,|rest.|
w: Way, my End, ac-|cept the praise I|bring.|
w: as you are, I'll|praise you as I|ought.|
w: of your name re-|fresh my soul in|death.|
V:2
 D2 | F2 F2 D2 D2 | E2 C2 D2 D2 | B,C D2 C2 D2 | C6 |1 D2 | D2 D2 D2 D2 | B,2 C2 D2 B,2 | %8
 D2 B,2 A,2 A,2 | A,6 x2 |] %10
V:3
 F,2 | A,2 A,2 G,2 A,2 | A,2 A,2 A,2 A,2 | B,2 A,2 G,2 A,2 | A,6 |1 A,2 | G,2 A,2 B,2 D,2 | %7
 E,2 E,2 D,2 F,2 | A,2 G,2 F,2 E,G, | F,6 x2 |] %10
V:4
 D,2 | D,2 F,2 G,2 F,2 | C,2 A,,2 D,2 D,2 | G,2 F,2 E,2 D,2 | A,,6 |1 D,=C, | B,,2 A,,2 G,,2 F,,2 | %7
 E,,2 A,,2 B,,2 B,,2 | F,,2 G,,2 A,,2 A,,2 | D,6 x2 |] %10

